!!!!SEGMENT: pl-wtm--r-2448_hertz-michal--jasienko.krn
!!!cenid: 18xx:2384
!!!COM: Hertz, Michał
!!!COM-rismID: pe41023359
!!!CDT: 1844/09/28-~1918
!!!CNT: Polish
!!!OTL: Jasieńko
!!!PDT:
!!!AGN:
!!!SMS-siglum: PL-Wtm
!!!SMS-shelfmark: R 2448
!!!SMS-shelfwork: W
!!!SMS-variant:
!!!SMS-altvar:
!!!NIFC-rismSourceID: 1001083361
!!!NIFC-islandoraID:
!!!URL-pdf-islandora:
!!!URL-scan:
!!!ONB-nifc:
!!!AIN: 1 empty 1 forte
!!!key:
**kern	**kern	**dynam	**kern	**text	**text	**text	**text	**text	**text	**text	**dynam
*part2	*part2	*part2	*part1	*part1	*part1	*part1	*part1	*part1	*part1	*part1	*part1
*staff3	*staff2	*	*staff1	*staff1	*staff1	*staff1	*staff1	*staff1	*staff1	*staff1	*
*	*	*	*	*verse1	*verse2	*verse3	*verse4	*verse5	*verse6	*verse7	*
*>[A,B,B]	*>[A,B,B]	*>[A,B,B]	*>[A,B,B]	*>[A,B,B]	*>[A,B,B]	*>[A,B,B]	*>[A,B,B]	*>[A,B,B]	*>[A,B,B]	*>[A,B,B]	*>[A,B,B]
*>A	*>A	*>A	*>A	*>A	*>A	*>A	*>A	*>A	*>A	*>A	*>A
*Iforte	*Iforte	*	*Iempty	*	*	*	*	*	*	*	*
*I"Fortepian	*I"Fortepian	*	*I"Śpiew	*	*	*	*	*	*	*	*
*clefF4	*clefG2	*	*clefG2	*	*	*	*	*	*	*	*
*k[b-e-a-d-]	*k[b-e-a-d-]	*	*k[b-e-a-d-]	*	*	*	*	*	*	*	*
*f:	*f:	*	*f:	*	*	*	*	*	*	*	*
*M3/8	*M3/8	*	*M3/8	*	*	*	*	*	*	*	*
=1	=1	=1	=1	=1	=1	=1	=1	=1	=1	=1	=1
!	!LO:TX:a:Bi:t=Nie za prędko.	!	!	!	!	!	!	!	!	!	!
16A-LL 16F'\	16r	f	4r	.	.	.	.	.	.	.	.
16B-J 16G'\	16cc\	.	.	.	.	.	.	.	.	.	.
!	!	!LO:HP:b=2	!	!	!	!	!	!	!	!	!
(8c 8A-\	[4f/	<	.	.	.	.	.	.	.	.	.
16B-L 16G\	.	.	8r	.	.	.	.	.	.	.	.
16cJJ 16A-\)	.	.	.	.	.	.	.	.	.	.	.
=2	=2	=2	=2	=2	=2	=2	=2	=2	=2	=2	=2
*^	*	*	*	*	*	*	*	*	*	*	*
(8d-/	(8B-\L	(16f/LL]	.	4r	.	.	.	.	.	.	.	.
.	.	16g/	.	.	.	.	.	.	.	.	.	.
!	!	!	!LO:HP:b=2	!	!	!	!	!	!	!	!	!
4c/)	16A-\L)	16f/)	[ >	.	.	.	.	.	.	.	.	.
.	16F\J	16a-/J	.	.	.	.	.	.	.	.	.	.
!	!	!	!	!LO:TX:t=P:global:problem=kreska taktowa początek repetycji dopisana ołówkiem	!	!	!	!	!	!	!	!
.	8A-\J	8f/J	]]	8r	.	.	.	.	.	.	.	.
*v	*v	*	*	*	*	*	*	*	*	*	*	*
=3!|:	=3!|:	=3!|:	=3!|:	=3!|:	=3!|:	=3!|:	=3!|:	=3!|:	=3!|:	=3!|:	=3!|:
*>B	*>B	*>B	*>B	*>B	*>B	*>B	*>B	*>B	*>B	*>B	*>B
*	*^	*	*	*	*	*	*	*	*	*	*
!	!LO:TX:t=P:problem=uwzględniono zmiany dopisane ołówkiem [konsultacja E.Z.]	!	!LO:DY:a	!	!	!	!	!	!	!	!	!
4GG@ 4GGG@/	([4.en/	4d-@ 4B-@ 4En\@	sf	4r	.	.	.	.	.	.	.	.
!	!	!LO:N:xstem	!LO:DY:rj	!	!	!	!	!	!	!	!	!
8BB-@ 8BBB-/@	.	8d-@ 8B-@ 8E\@	f	8r	.	.	.	.	.	.	.	.
=6	=6	=6	=6	=6	=6	=6	=6	=6	=6	=6	=6	=6
8C 8CC/	8e/L]	8c 8B- 8G@\	.	4r	.	.	.	.	.	.	.	.
8r;<	8.g;/	8r;	.	.	.	.	.	.	.	.	.	.
8r	.	8r	.	8r	.	.	.	.	.	.	.	.
.	16f/Jk)	.	.	.	.	.	.	.	.	.	.	.
!!LO:LB:g=original
=7	=7	=7	=7	=7	=7	=7	=7	=7	=7	=7	=7	=7
8r	[4.f/	8r	.	4r	.	.	.	.	.	.	.	.
8r	.	8r	.	.	.	.	.	.	.	.	.	.
8C 8FF/	.	8A- 8F\	.	8r	.	.	.	.	.	.	.	.
=8	=8	=8	=8	=8	=8	=8	=8	=8	=8	=8	=8	=8
8FF 8FFF/	8f/]	8F\	.	8r	.	.	.	.	.	.	.	.
!	!	!	!	!	!	!	!	!	!	!	!	!LO:DY:b
8r;	8r;	8ryy	.	8r;	.	.	.	.	.	.	.	p
!	!	!	!LO:DY:rj	!	!	!	!	!	!	!	!	!
8G 8En'\	8c'/	8ryy	p	8c/	Co	a	I	I	I	Tam	I	.
*	*v	*v	*	*	*	*	*	*	*	*	*	*
=9	=9	=9	=9	=9	=9	=9	=9	=9	=9	=9	=9
(8A-L 8F\	(8dn/L	.	8dn/	pół-	wierz-	po-	po-	po-	bę-	słon-	.
!	!	!LO:HP:b=2	!	!	!	!	!	!	!	!	!
8B- 8G\	8en/	<	8en/	-noc	-by	-wstał	-wstał	-wstał	-dziem	-ko	.
8cJ 8A-\)	8f/J	.	8f/	cho-	co	z_mo-	mło-	Ja-	się	wsta-	.
=10	=10	=10	=10	=10	=10	=10	=10	=10	=10	=10	=10
(4d-X 4B-\	8a-/L	.	8a-/	-dzi-	pła-	-gi-	-dzie-	-sień-	tu-	-wa-	.
.	.	[	.	.	.	.	.	.	.	.	.
!	!	!LO:HP:b=2	!	!	!	!	!	!	!	!	!
.	8g/	>	8g/	-ła	-czą,	-ły	-niec	-ko	-lić	-ło	.
8c 8A-\)	8f/J)	]]	8f/	gdzie	sza-	kró-	stro-	w_łach-	i	a	.
=11	=11	=11	=11	=11	=11	=11	=11	=11	=11	=11	=11
!	!	!LO:HP:b=2	!	!	!	!	!	!	!	!	!
(8cL 8A-\	(8f/L	<	8f/	je-	-le-	-le-	-jo-	-ma-	pie-	dziew-	.
8d- 8B-\	8g/	.	8g/	-go	-ją	-wicz	-ny	-nach	-ścić	-czę	.
8e-J 8c\)	8a-/J)	[[	8a-/	mo-	i	prze-	w_róż	z_li-	i	się	.
=12	=12	=12	=12	=12	=12	=12	=12	=12	=12	=12	=12
!	!	!LO:HP:b=2	!	!	!	!	!	!	!	!	!
(4d- 4B-\	(8cc\L	>	8cc\	-gi-	ska-	-mi-	wie-	-ren-	czu-	śmia-	.
.	8b-\	.	8b-\	-ła,	-czą,	-ły,	-niec,	-ką,	-lić,	-ło,	.
8e- 8c\)	8a-\J)	]]	8a-/	sza-	szkie-	od-	od-	na	tak	oj	.
!!LO:LB:g=original
=13	=13	=13	=13	=13	=13	=13	=13	=13	=13	=13	=13
!	!	!LO:HP:b=2	!	!	!	!	!	!	!	!	!
(8e-L 8c\	(8a-\L	<	8a-/	-la-	-le-	-py-	-py-	mie-	bę-	sen-	.
8f 8d-\	8b-\	.	8b-\	-ła	-ty,	-cha	-cha	-czu	-dziem	-ne	.
8gJ 8e-\	8cc\J	.	8cc\	pła-	szkie-	go	go	się	szczę-	na	.
=14	=14	=14	=14	=14	=14	=14	=14	=14	=14	=14	=14
4a- 4f\	8ee-\L	.	8ee-\	-ka-	-le-	rę-	rę-	wspie-	-śli-	gro-	.
!LO:TX:b:i:t=rit:rj	!	!	!LO:TX:a:i:t=rit:rj	!	!	!	!	!	!	!	!
.	8dd-\	.	8dd-\	-ła	-ty,	-ką	-ką	-ra,	-wi	-bie,	.
.	.	[	.	.	.	.	.	.	.	.	.
8g 8e-\)	[8cc\J)	.	8cc\	sza-	ko-	od-	od-	wąż	szczę-	na	.
=15	=15	=15	=15	=15	=15	=15	=15	=15	=15	=15	=15
!LO:TX:b:i:t=a Tempo	!	!LO:DY:rj	!LO:TX:a:i:t=a Tempo	!	!	!	!	!	!	!	!LO:DY:a:rj
[4.f [4.d-\	16cc\LL]	f	(4.cc\	-la-	-łu-	-py-	-py-	ser-	-śli-	wie-	f
.	((<16ff\	.	.	.	.	.	.	.	.	.	.
.	16gg\	.	.	.	.	.	.	.	.	.	.
.	16aa-\	.	.	.	.	.	.	.	.	.	.
.	16ccc\	.	.	.	.	.	.	.	.	.	.
.	16cc\JJ)	.	.	.	.	.	.	.	.	.	.
=16	=16	=16	=16	=16	=16	=16	=16	=16	=16	=16	=16
8f] 8d-\]	8b-\)	.	8b-\)	.	.	.	.	.	.	.	.
4e- 4c\	4a-/	.	8a-/	-ła,	-ją,	-cha,	-cha,	-ce	-wsi	-ki	.
.	.	.	8a-/	war-	szkie-	to	to	wy-	jak	już	.
=17	=17	=17	=17	=17	=17	=17	=17	=17	=17	=17	=17
!	!	!LO:DY:rj	!	!	!	!	!	!	!	!	!LO:DY:a:rj
(8d-L 8B-\	(8g\L	p	8g/	-ko-	-le-	nie	nie	-dzie-	ży-	spa-	p
!	!	!LO:HP:b=2	!	!	!	!	!	!	!	!	!
8e- 8c\	8a-\	<	8a-/	-cze,	-ty	mój	mój	-ra,	-wi	-ło	.
8fJ 8d-\	8b-\J	.	8b-\	war-	szkie-	Ja-	Ja-	wąż	szczę-	na	.
=18	=18	=18	=18	=18	=18	=18	=18	=18	=18	=18	=18
8a-L 8f\	8dd-\L	.	8dd-\	-ko-	-le-	-sień-	-sień-	ser-	-śliw-	wie-	.
!LO:TX:b:i:t=rit:rj	!	!	!LO:TX:a:i:t=rit:rj	!	!	!	!	!	!	!	!
8g 8e-\	8cc\	.	8cc\	-cze	-ty	-ko,	-ko,	-ce	-si	-ki	.
8fJ 8d-\)	8b-\J)	[	8b-\	tar-	wi-	to	to	wy-	jak	już	.
!!LO:PB:g=original
=19	=19	=19	=19	=19	=19	=19	=19	=19	=19	=19	=19
*	*^	*	*	*	*	*	*	*	*	*	*
!	!LO:TX:b:i:t=a Tempo	!	!LO:DY:rj	!LO:TX:a:i:t=a Tempo	!	!	!	!	!	!	!	!LO:DY:b:rj
[4.e- [4.c\	16b-/LL	4.b-\	f	(4.b-\	-ga-	-chru-	nie	nie	-dzie-	ży-	spa-	f
.	(<16ee-/	.	.	.	.	.	.	.	.	.	.	.
.	16ff/	.	.	.	.	.	.	.	.	.	.	.
.	16gg/	.	.	.	.	.	.	.	.	.	.	.
.	16bb-/)	.	.	.	.	.	.	.	.	.	.	.
.	16b-/JJ	.	.	.	.	.	.	.	.	.	.	.
*	*v	*v	*	*	*	*	*	*	*	*	*	*
=20	=20	=20	=20	=20	=20	=20	=20	=20	=20	=20	=20
(8e-]L 8c\]	(8a-/L	.	8a-/)	.	.	.	.	.	.	.	.
8.d- 8.B-\)	8.g/)	.	8g/	-ła,	-ją,	mój.	mój	-ra	-wi	-ło.	.
.	.	.	16r	.	.	.	.	.	.	.	.
*	*	*	*	*	*ij	*ij	*ij	*ij	*ij	*	*
!	!	!	!	!	!	!	!	!	!	!	!LO:DY:a
16cJk 16A-\	16f/Jk	p	16f/	Ja-	Ja-	Ja-	Ja-	Ja-	Ja-	Ja-	p
=21	=21	=21	=21	=21	=21	=21	=21	=21	=21	=21	=21
!	!	!	!	!	!	!	!	!	!	!	!LO:DY:a
4f 4A-\	[4.cc\	.	8cc\	-sień-	-sień-	-sień-	-sień-	-sień-	-sień-	-sien-	<
!	!	!LO:HP:b=2	!	!	!	!	!	!	!	!	!
.	.	<	8f/	-ku	-ku	-ku	-ku	-ku	-ku	-ko	.
(8g (8c\	.	.	8g/	mój	mój	mój	mój	mój	mój	z_li-	.
=22	=22	=22	=22	=22	=22	=22	=22	=22	=22	=22	=22
*	*	*	*^	*	*	*	*	*	*	*	*
8a-) 8f\)	(16cc\LL]	.	8a-/	8ryy	mi-	mi-	mi-	mi-	mi-	mi-	-ren-	.
.	16dd-\	.	.	.	.	.	.	.	.	.	.	.
4g 4c\	16cc\)	.	8g/	8ryy	-ły,	-ły,	-ły,	-ły,	-ły,	-ły,	-ką,	[
.	16gg\J	.	.	.	.	.	.	.	.	.	.	.
.	8cc\J	.	8r	16rc	.	.	.	.	.	.	.	.
.	.	.	.	16g\	.	.	.	.	.	.	.	.
=23	=23	=23	=23	=23	=23	=23	=23	=23	=23	=23	=23	=23
4f 4A-\	[4.cc\	.	16cc/	8cc\	Weź	Weź	Weź	Weź	Weź	Weź	w mo-	.
.	.	.	16f/	.	mnie	mnie	mnie	mnie	mnie	mnie	-gi-	.
.	.	[	8f/	8f\	do	do	do	do	do	do	-łę	.
(8g (8c\	.	.	8g/	8g\	mo-	mo-	mo-	mo-	mo-	mo-	wziął	.
*	*	*	*v	*v	*	*	*	*	*	*	*	*
=24	=24	=24	=24	=24	=24	=24	=24	=24	=24	=24	=24
8a-) 8f\)	(16cc\LL]	.	8a-/	-gi-	-gi-	-gi-	-gi-	-gi-	-gi-	so-	.
.	16dd-\	.	.	.	.	.	.	.	.	.	.
4g 4c\	16cc\)	.	8g/	-ły,	-ły,	-ły,	-ły,	-ły,	-ły,	-bie,	.
.	16gg\J	.	.	.	.	.	.	.	.	.	.
.	8cc\J	.	16r	.	.	.	.	.	.	.	.
!	!	!	!	!	!	!	!	!	!	!	!LO:DY:a
.	.	.	16cc\	Ja-	Ja-	Ja-	Ja-	Ja-	Ja-	Ja-	f
!!LO:LB:g=original
=25	=25	=25	=25	=25	=25	=25	=25	=25	=25	=25	=25
*^	*^	*	*^	*	*	*	*	*	*	*	*
!	!	!	!	!LO:DY:rj	!	!	!	!	!	!	!	!	!	!
(16F/LL	4F\	(8ff/L	[4.f\	f	4ff@/	8ff\	-sień-	-sień-	-sień-	-sień-	-sień-	-sień-	-sień-	.
16G/J	.	.	.	.	.	.	.	.	.	.	.	.	.	.
8A-/)	.	8een/	.	.	.	8een\	.	.	.	.	.	.	.	.
(16G/L	8F\	8ee-X/J	.	.	16een/LL@	8ee-X\	-ku	-ku	-ku	-ku	-ku	-ku	-ko	.
16An/JJ)	.	.	.	.	16ee-/JJ@	.	mój	mój	mój	mój	mój	mój	z_li-	.
*v	*v	*	*	*	*	*	*	*	*	*	*	*	*	*
=26	=26	=26	=26	=26	=26	=26	=26	=26	=26	=26	=26	=26	=26
!	!	!	!LO:HP:b=2	!	!	!	!	!	!	!	!	!	!
(16B-LL 16BB-\	8ddn/	4.f\]	<	8ddn/	8ddn\	mi-	mi-	mi-	mi-	mi-	mi-	-ren-	.
16A-X 16AA-X\	.	.	.	.	.	.	.	.	.	.	.	.	.
16G 16GG\	4dd-X/)	.	.	4dd-X/	8dd-\	-ły,	-ły,	-ły,	-ły,	-ły,	-ły,	-ką	.
16B-J 16BB-\	.	.	.	.	.	.	.	.	.	.	.	.	.
8GJ 8GG\)	.	.	[[	.	16r	.	.	.	.	.	.	.	.
.	.	.	.	.	16f\	.	.	.	.	.	.	.	.
=27	=27	=27	=27	=27	=27	=27	=27	=27	=27	=27	=27	=27	=27
*^	*	*	*	*	*	*	*	*	*	*	*	*	*
!	!	!	!	!LO:DY:rj	!	!	!	!	!	!	!	!	!	!LO:DY:a:rj
(16C/LL	4C\	(8cc/L	[4.c\	p	16cc/	8cc\	weź	weź	weź	weź	weź	weź	w_mo-	p
16Dn/J	.	.	.	.	16cc/	.	mnie	mnie	mnie	mnie	mnie	mnie	-gi-	.
8En/)	.	8bn/	.	.	8bn/	8bn\	do	do	do	do	do	do	-łę	.
(16D/L	8C\	8b-X/J	.	.	8b-X/	8b-\	mo-	mo-	mo-	mo-	mo-	mo-	wziął	.
16E/JJ)	.	.	.	.	.	.	.	.	.	.	.	.	.	.
*v	*v	*	*	*	*v	*v	*	*	*	*	*	*	*	*
=28	=28	=28	=28	=28	=28	=28	=28	=28	=28	=28	=28	=28
!	!	!	!LO:HP:b=2	!	!	!	!	!	!	!	!	!
(16FLL 16FF\	8an/L	4.c\]	<	8an/	-gi-	-gi-	-gi-	-gi-	-gi-	-gi-	so-	.
16E- 16EE-\	.	.	.	.	.	.	.	.	.	.	.	.
16Dn 16DDn\	8.a-X/	.	.	8a-X/	-ły.	-ły.	-ły.	-ły.	-ły.	-ły.	-bie,	.
16FJ 16FF\	.	.	.	.	.	.	.	.	.	.	.	.
8DJ 8DD\)	.	.	.	16r	.	.	.	.	.	.	.	.
!	!	!	!	!	!	!	!	!	!	!	!	!LO:DY:a
.	16f/Jk)	.	[[	16f/	Ja-	Ja-	Ja-	Ja-	Ja-	Ja-	w_mo-	f
=29	=29	=29	=29	=29	=29	=29	=29	=29	=29	=29	=29	=29
16r	([4.a-/	16r	f	[>4.a-/	-sień-	-sień-	-sień-	-sień-	-sień-	-sień-	-gi-	.
16Dn 16DDn\	.	16f 16c\	.	.	.	.	.	.	.	.	.	.
(8D-XL (8DD-X\	.	[>4f [4d-\	.	.	.	.	.	.	.	.	.	.
16CL) 16CC\)	.	.	.	.	.	.	.	.	.	.	.	.
16BB-JJ 16BBB-\	.	.	.	.	.	.	.	.	.	.	.	.
=30	=30	=30	=30	=30	=30	=30	=30	=30	=30	=30	=30	=30
8B- 8BB-\	8a-/L]	8f] 8d-\]	.	8a-/]	.	.	.	.	.	.	.	.
8r	8.g/)	8r	.	8g/	-ku,	-ku,	-ku,	-ku,	-ku,	-ku,	-łę,	.
8r	.	8r	.	16r	.	.	.	.	.	.	.	.
!	!	!	!	!	!	!	!	!	!	!	!	!LO:DY:a
.	16f/Jk	.	.	16f/	mój	mój	mój	mój	mój	mój	w_mo-	p
!!LO:LB:g=original
=31	=31	=31	=31	=31	=31	=31	=31	=31	=31	=31	=31	=31
16r	([4.a-/	16r	p	[>4.a-/	mi-	mi-	mi-	mi-	mi-	mi-	-gi-	.
16Dn 16DDn\	.	16f 16c\	.	.	.	.	.	.	.	.	.	.
(8D-XL (8DD-X\	.	[>4f [4d-\	.	.	.	.	.	.	.	.	.	.
16CL 16CC\))	.	.	.	.	.	.	.	.	.	.	.	.
16BB-JJ 16BBB-\	.	.	.	.	.	.	.	.	.	.	.	.
=32	=32	=32	=32	=32	=32	=32	=32	=32	=32	=32	=32	=32
8B- 8BB-\	8a-/L]	8f] 8d-\]	.	8a-/]	.	.	.	.	.	.	.	.
8r	8.g/)	8r	.	8g/	-ły,	-ły,	-ły,	-ły,	-ły,	-ły,	-łę	.
8r	.	8r	.	16r	.	.	.	.	.	.	.	.
!	!	!	!	!	!	!	!	!	!	!	!	!LO:DY:b:rj
.	16f/Jk	.	.	16f/	Ja-	Ja-	Ja-	Ja-	Ja-	Ja-	wziął	f
=33	=33	=33	=33	=33	=33	=33	=33	=33	=33	=33	=33	=33
4r	[4.cc/	8r	f	[4.cc\	-sień-	-sień-	-sień-	-sień-	-sień-	-sień-	so-	.
.	.	8.r	.	.	.	.	.	.	.	.	.	.
16r	.	.	.	.	.	.	.	.	.	.	.	.
16A- 16AA-\	.	16f 16c\	.	.	.	.	.	.	.	.	.	.
=34	=34	=34	=34	=34	=34	=34	=34	=34	=34	=34	=34	=34
8G 8GG\	4.cc/_	8f 8B-\	.	4.cc\_	.	.	.	.	.	.	.	.
4C/	.	4en 4B-\	.	.	.	.	.	.	.	.	.	.
*	*v	*v	*	*	*	*	*	*	*	*	*	*
=35	=35	=35	=35	=35	=35	=35	=35	=35	=35	=35	=35
16A-LL 16F'\	16cc\LL]	.	8cc\]	.	.	.	.	.	.	.	.
16B-J 16G'\	16cc\JJ	.	.	.	.	.	.	.	.	.	.
(8c 8A-\	[>4f/	.	8f/	-ku!	-ku!	-ku!	-ku!	-ku!	-ku!	-bie!	.
*	*	*	*	*	*Xij	*Xij	*Xij	*Xij	*Xij	*	*
16B-L 16G\	.	.	8r	.	.	.	.	.	.	.	.
16cJJ 16A-\)	.	.	.	.	.	.	.	.	.	.	.
=36	=36	=36	=36	=36	=36	=36	=36	=36	=36	=36	=36
*^	*	*	*	*	*	*	*	*	*	*	*
8d-/	8B-\L	(16f/LL]	.	4r	.	.	.	.	.	.	.	.
.	.	16g/	.	.	.	.	.	.	.	.	.	.
!	!LO:S:s=1:note:problem=note-level slur	!	!	!	!	!	!	!	!	!	!	!
4c/	(>16A-\L	16f/)	.	.	.	.	.	.	.	.	.	.
.	16F\J	16a-/J	.	.	.	.	.	.	.	.	.	.
.	8A-\J)	8f/J	.	8r	.	.	.	.	.	.	.	.
*v	*v	*	*	*	*	*	*	*	*	*	*	*
=:|!	=:|!	=:|!	=:|!	=:|!	=:|!	=:|!	=:|!	=:|!	=:|!	=:|!	=:|!
*-	*-	*-	*-	*-	*-	*-	*-	*-	*-	*-	*-
!!!system-decoration: s1[(s2,s3)]
!!!RDF**kern: > = above
!!!RDF**kern: < = below
!!!RDF**kern: @ = marked note, color=gray
!!!ENC: Krzysztof Stępień
!!!END: 2021-06-10
!!!ENC: Andrzej Kubiczek
!!!END: 2021-10-10
